X:426
T:
S:Ur von Baumgartens samling, Visby.
R:vals
O:Gotland, Visby
M:3/4
L:1/8
K:Bb
(3fgf|d4 f2|c4 d2|B4 B2|B2 c2 d2|e4 d2|edefge|c4 c2|c2 d2 e2|
fdbagf|edcBAG|F2 A2 c2|e4 AB|cg^fgec|Bf=efdB|FGABcd|B2 z2::dd|
d2 B2 d2|c2 A2 c2|BA ^F2 A2|GABc d2|e2 c2 e2|dfga b2|B2 d2 c2|
B4::de|f3 fga|b=ef^cdB|FAcdef|gf f2 de|f3 fga|b=ef^cdB|FAcgfA|B4:|

